tools/download-figma-icons/icons/outlined-large/family-2.svg

<svg width="65" height="64" viewBox="0 0 65 64" fill="none" xmlns="http://www.w3.org/2000/svg">
<path d="M36.1557 38.604C38.4661 36.9343 40.0063 33.935 40.0063 30.4958C40.0063 25.2571 36.4157 20.998 32.0051 20.998C27.5944 20.998 24.0038 25.2571 24.0038 30.4958C24.0038 33.925 25.554 36.9343 27.8544 38.604C21.3234 40.5435 18.4829 46.6421 18.1029 47.5219C17.5228 48.5816 16.4126 51.0311 17.3827 52.6907C17.6728 53.1806 18.3829 54.0004 19.9231 54.0004H44.0569C45.6072 54.0004 46.3173 53.1806 46.5973 52.6907C47.5775 51.0311 46.4573 48.5816 45.8772 47.5219C45.5072 46.6521 42.6567 40.5535 36.1257 38.604H36.1557ZM32.0051 23.9973C34.7655 23.9973 37.0058 26.9167 37.0058 30.4958C37.0058 34.075 34.7655 36.9943 32.0051 36.9943C29.2446 36.9943 27.0043 34.075 27.0043 30.4958C27.0043 26.9167 29.2446 23.9973 32.0051 23.9973ZM20.0032 50.9911C20.0532 50.5312 20.3432 49.6814 20.7733 48.9016L20.8533 48.7416C20.9833 48.4217 24.1338 40.9934 32.0051 40.9934C39.8763 40.9934 43.0168 48.3917 43.1568 48.7316L43.2368 48.8916C43.6669 49.6714 43.9569 50.5312 44.0069 50.9811H20.0032V50.9911Z" fill="black"/>
<path d="M15.5025 41.9926L3.0005 41.9626C3.0505 41.5127 3.35055 40.6629 3.80062 39.8931L3.88063 39.7331C4.02066 39.4132 7.30117 32.0049 15.4925 32.0049H15.5225C16.8727 32.0049 18.1029 32.1648 19.083 32.4448C19.8732 32.6747 20.7133 32.2248 20.9433 31.425C21.1734 30.6352 20.7233 29.7954 19.9232 29.5655C19.5131 29.4455 19.053 29.3455 18.593 29.2655C21.4734 27.8259 23.5037 24.4466 23.5037 20.5076C23.5037 15.2688 19.9132 11.0098 15.5025 11.0098C11.0918 11.0098 7.5012 15.2588 7.5012 20.4976C7.5012 24.4666 9.57153 27.8758 12.492 29.2955C4.87079 30.7652 1.57027 37.5436 1.16021 38.4634C0.570113 39.5131 -0.590069 41.9426 0.370082 43.6222C0.660127 44.1221 1.38024 44.9619 2.97049 44.9619L15.4925 44.9919C16.3226 44.9919 16.9927 44.322 16.9927 43.4922C16.9927 42.6624 16.3226 41.9926 15.4925 41.9926H15.5025ZM10.5017 20.4976C10.5017 16.9184 12.742 13.9991 15.5025 13.9991C18.2629 13.9991 20.5033 16.9184 20.5033 20.4976C20.5033 24.0767 18.2629 26.996 15.5025 26.996C12.742 26.996 10.5017 24.0767 10.5017 20.4976Z" fill="black"/>
<path d="M62.8499 38.4636C62.4398 37.5338 59.1393 30.7654 51.5181 29.2957C54.4385 27.8761 56.5089 24.4769 56.5089 20.4978C56.5089 15.259 52.9183 11 48.5076 11C44.0969 11 40.5063 15.259 40.5063 20.4978C40.5063 24.4369 42.5367 27.8261 45.4171 29.2558C44.947 29.3357 44.497 29.4357 44.0869 29.5557C43.2868 29.7856 42.8367 30.6254 43.0668 31.4153C43.2968 32.2151 44.1369 32.665 44.927 32.435C45.8972 32.1551 47.1274 31.9951 48.4876 31.9951H48.5176C56.6989 31.9951 59.9894 39.4134 60.1294 39.7233L60.2094 39.8933C60.6595 40.6631 60.9596 41.5129 61.0096 41.9628L48.5076 41.9928C47.6775 41.9928 47.0074 42.6726 47.0074 43.4924C47.0074 44.3223 47.6775 44.9921 48.5076 44.9921L61.0296 44.9621C62.6298 44.9621 63.3499 44.1223 63.63 43.6224C64.6001 41.9428 63.44 39.5134 62.8399 38.4636H62.8499ZM43.5068 20.4978C43.5068 16.9186 45.7472 13.9993 48.5076 13.9993C51.268 13.9993 53.5084 16.9186 53.5084 20.4978C53.5084 24.077 51.268 26.9963 48.5076 26.9963C45.7472 26.9963 43.5068 24.077 43.5068 20.4978Z" fill="black"/>
</svg>

<svg width="65" height="64" viewBox="0 0 65 64" fill="none" xmlns="http://www.w3.org/2000/svg"><path d="M36.156 38.604c2.31-1.67 3.85-4.669 3.85-8.108 0-5.239-3.59-9.498-8-9.498-4.412 0-8.002 4.26-8.002 9.498 0 3.429 1.55 6.438 3.85 8.108-6.53 1.94-9.371 8.038-9.751 8.918-.58 1.06-1.69 3.51-.72 5.169.29.49 1 1.31 2.54 1.31h24.134c1.55 0 2.26-.82 2.54-1.31.98-1.66-.14-4.11-.72-5.17-.37-.869-3.22-6.968-9.751-8.917h.03Zm-4.15-14.607c2.76 0 5 2.92 5 6.499 0 3.579-2.24 6.498-5 6.498-2.761 0-5.002-2.919-5.002-6.498 0-3.58 2.24-6.499 5.001-6.499ZM20.002 50.991c.05-.46.34-1.31.77-2.09l.08-.16c.13-.32 3.28-7.748 11.152-7.748 7.871 0 11.012 7.399 11.152 7.739l.08.16c.43.78.72 1.64.77 2.09H20.003v.01Zm-4.5-8.998L3 41.963c.05-.45.35-1.3.8-2.07l.08-.16c.14-.32 3.421-7.728 11.613-7.728h.03c1.35 0 2.58.16 3.56.44a1.5 1.5 0 1 0 .84-2.88 12.4 12.4 0 0 0-1.33-.3c2.88-1.44 4.91-4.818 4.91-8.757 0-5.24-3.59-9.498-8-9.498-4.411 0-8.002 4.249-8.002 9.488 0 3.969 2.07 7.378 4.991 8.797-7.621 1.47-10.922 8.249-11.332 9.168-.59 1.05-1.75 3.48-.79 5.16.29.5 1.01 1.339 2.6 1.339l12.522.03c.83 0 1.5-.67 1.5-1.5s-.67-1.5-1.5-1.5h.01Zm-5-21.495c0-3.58 2.24-6.499 5-6.499s5.001 2.92 5.001 6.499c0 3.579-2.24 6.498-5 6.498-2.761 0-5.001-2.92-5.001-6.498ZM62.85 38.464c-.41-.93-3.71-7.699-11.332-9.168 2.92-1.42 4.99-4.82 4.99-8.798 0-5.239-3.59-9.498-8-9.498-4.411 0-8.002 4.259-8.002 9.498 0 3.939 2.03 7.328 4.911 8.758-.47.08-.92.18-1.33.3a1.499 1.499 0 1 0 .84 2.879c.97-.28 2.2-.44 3.56-.44h.03c8.182 0 11.472 7.418 11.612 7.728l.08.17c.45.77.75 1.62.8 2.07l-12.501.03c-.83 0-1.5.68-1.5 1.5 0 .83.67 1.5 1.5 1.5l12.522-.03c1.6 0 2.32-.84 2.6-1.34.97-1.68-.19-4.11-.79-5.16h.01ZM43.507 20.498c0-3.58 2.24-6.499 5-6.499 2.761 0 5.001 2.92 5.001 6.499 0 3.579-2.24 6.498-5 6.498s-5.001-2.919-5.001-6.498Z" fill="currentColor"/></svg>
